usr/share/icons/biglinux-icons-material/scalable/apps/glade.svg

<svg width="24" height="24" viewBox="0 0 24 24" fill="none" xmlns="http://www.w3.org/2000/svg">
<path fill-rule="evenodd" clip-rule="evenodd" d="M9.59604 1.11359C9.71588 1.11486 9.83043 1.0996 9.93969 1.06779C11.3755 0.973736 12.8111 0.977551 14.2467 1.07924C15.5484 1.18066 16.8085 1.46308 18.0269 1.9265C20.0525 2.76044 21.4386 4.2069 22.185 6.26586C22.6119 7.50549 22.8639 8.78021 22.9411 10.09C23.0478 11.7347 23.0096 13.3758 22.8265 15.0133C22.6895 16.1642 22.3917 17.271 21.933 18.3336C21.0824 20.1761 19.704 21.447 17.7978 22.1463C16.2531 22.6682 14.6647 22.943 13.0325 22.9706C11.1966 23.0661 9.37913 22.9287 7.57997 22.5585C4.26839 21.8208 2.22559 19.8018 1.45158 16.5017C1.12311 15.0161 0.974199 13.5124 1.00483 11.9906C0.968176 10.3724 1.14 8.77709 1.52031 7.20471C2.33171 4.11908 4.2905 2.20701 7.39669 1.46852C8.12049 1.29157 8.8536 1.17326 9.59604 1.11359Z" fill="url(#paint0_radial_8_337)"/>
<path opacity="0.35" d="M5.90909 4C4.85145 4 4 4.85145 4 5.90909V11.6364C4 12.694 4.85145 13.5455 5.90909 13.5455H16.0909C17.1485 13.5455 18 12.694 18 11.6364V5.90909C18 4.85145 17.1485 4 16.0909 4H5.90909ZM5.90909 4.63636H16.0909C16.796 4.63636 17.3636 5.204 17.3649 5.90909H4.63764V5.88555C4.64299 5.55205 4.77936 5.23406 5.01728 5.00031C5.2552 4.76655 5.57555 4.63582 5.90909 4.63636ZM4.63764 6.54545H17.3636V11.6478C17.3613 11.9836 17.2261 12.3048 16.9876 12.5411C16.7491 12.7775 16.4267 12.9098 16.0909 12.9091H5.90909C5.57555 12.9096 5.2552 12.7789 5.01728 12.5451C4.77936 12.3114 4.64299 11.9934 4.63764 11.6599V6.54545ZM6.86491 7.18182C6.61175 7.18182 6.36896 7.28239 6.18994 7.4614C6.01093 7.64041 5.91036 7.8832 5.91036 8.13636C5.91036 8.38953 6.01093 8.63232 6.18994 8.81133C6.36896 8.99034 6.61175 9.09091 6.86491 9.09091C7.11807 9.09091 7.36086 8.99034 7.53987 8.81133C7.71889 8.63232 7.81946 8.38953 7.81946 8.13636C7.81946 7.8832 7.71889 7.64041 7.53987 7.4614C7.36086 7.28239 7.11807 7.18182 6.86491 7.18182ZM6.86491 7.81818C6.9493 7.81818 7.03023 7.8517 7.0899 7.91138C7.14957 7.97105 7.18309 8.05198 7.18309 8.13636C7.18309 8.22075 7.14957 8.30168 7.0899 8.36135C7.03023 8.42102 6.9493 8.45455 6.86491 8.45455C6.78052 8.45455 6.69959 8.42102 6.63992 8.36135C6.58025 8.30168 6.54673 8.22075 6.54673 8.13636C6.54673 8.05198 6.58025 7.97105 6.63992 7.91138C6.69959 7.8517 6.78052 7.81818 6.86491 7.81818ZM8.45582 7.81818V8.45455H16.0922V7.81818H8.45582ZM6.86491 10.3636C6.61175 10.3636 6.36896 10.4642 6.18994 10.6432C6.01093 10.8222 5.91036 11.065 5.91036 11.3182C5.91036 11.5713 6.01093 11.8141 6.18994 11.9931C6.36896 12.1722 6.61175 12.2727 6.86491 12.2727C7.11807 12.2727 7.36086 12.1722 7.53987 11.9931C7.71889 11.8141 7.81946 11.5713 7.81946 11.3182C7.81946 11.065 7.71889 10.8222 7.53987 10.6432C7.36086 10.4642 7.11807 10.3636 6.86491 10.3636ZM6.86491 11C6.9493 11 7.03023 11.0335 7.0899 11.0932C7.14957 11.1529 7.18309 11.2338 7.18309 11.3182C7.18309 11.4026 7.14957 11.4835 7.0899 11.5432C7.03023 11.6028 6.9493 11.6364 6.86491 11.6364C6.78052 11.6364 6.69959 11.6028 6.63992 11.5432C6.58025 11.4835 6.54673 11.4026 6.54673 11.3182C6.54673 11.2338 6.58025 11.1529 6.63992 11.0932C6.69959 11.0335 6.78052 11 6.86491 11ZM8.45582 11V11.6364H16.0922V11H8.45582Z" fill="white"/>
<path opacity="0.5" fill-rule="evenodd" clip-rule="evenodd" d="M11.8966 23C10.4461 22.9994 9.00728 22.8522 7.57997 22.5585C7.07606 22.4462 6.60153 22.3043 6.15638 22.1327L22.9014 9.57392C22.9177 9.74533 22.9309 9.91735 22.9411 10.09C22.9801 10.6921 22.9998 11.2937 23 11.8948C23 11.902 23 11.9092 23 11.9164C22.9996 12.9501 22.9418 13.9824 22.8265 15.0133C22.6895 16.1642 22.3917 17.271 21.933 18.3336C21.0824 20.1761 19.704 21.447 17.7978 22.1463C16.2531 22.6682 14.6647 22.943 13.0325 22.9706C12.6593 22.9901 12.2869 22.9998 11.9152 23C11.909 23 11.9028 23 11.8966 23ZM15.5 19.625H20V16.25L15.5 19.625Z" fill="#F9F9F9"/>
<defs>
<radialGradient id="paint0_radial_8_337" cx="0" cy="0" r="1" gradientUnits="userSpaceOnUse" gradientTransform="translate(12 1) rotate(90) scale(22)">
<stop stop-color="#C6E6A8"/>
<stop offset="1" stop-color="#90D056"/>
</radialGradient>
</defs>
</svg>

<svg xmlns="http://www.w3.org/2000/svg" width="24" height="24" fill="none"><path fill="url(#a)" fill-rule="evenodd" d="M9.596 1.114c.12 0 .234-.014.344-.046a31.627 31.627 0 0 1 4.307.011c1.301.102 2.561.384 3.78.848 2.025.833 3.412 2.28 4.158 4.339.427 1.24.679 2.514.756 3.824a27.94 27.94 0 0 1-.114 4.923 11.876 11.876 0 0 1-.894 3.32c-.85 1.843-2.229 3.114-4.135 3.813a15.624 15.624 0 0 1-4.765.825 21.423 21.423 0 0 1-5.453-.413c-3.312-.737-5.354-2.756-6.128-6.056a19.047 19.047 0 0 1-.447-4.511 18.491 18.491 0 0 1 .515-4.786c.812-3.086 2.77-4.998 5.877-5.736a13.954 13.954 0 0 1 2.199-.355Z" clip-rule="evenodd"/><path fill="#fff" d="M5.91 4C4.85 4 4 4.851 4 5.91v5.726c0 1.058.851 1.91 1.91 1.91h10.18c1.058 0 1.91-.852 1.91-1.91V5.91C18 4.851 17.148 4 16.09 4H5.91Zm0 .636h10.18c.706 0 1.274.568 1.275 1.273H4.638v-.023a1.27 1.27 0 0 1 1.271-1.25Zm-1.272 1.91h12.726v5.102a1.27 1.27 0 0 1-1.273 1.261H5.909a1.27 1.27 0 0 1-1.271-1.25V6.546Zm2.227.636a.955.955 0 1 0 0 1.909.955.955 0 0 0 0-1.91Zm0 .636a.318.318 0 1 1 0 .636.318.318 0 0 1 0-.636Zm1.59 0v.637h7.637v-.637H8.456Zm-1.59 2.546a.955.955 0 1 0 0 1.909.955.955 0 0 0 0-1.91Zm0 .636a.318.318 0 1 1 0 .636.318.318 0 0 1 0-.636Zm1.59 0v.636h7.637V11H8.456Z" opacity=".35"/><path fill="#F9F9F9" fill-rule="evenodd" d="M11.897 23c-1.45 0-2.89-.148-4.317-.442a10.003 10.003 0 0 1-1.424-.425l16.745-12.56a28.06 28.06 0 0 1 .099 2.32v.023c0 1.034-.058 2.066-.174 3.097a11.876 11.876 0 0 1-.893 3.32c-.85 1.843-2.229 3.114-4.135 3.813a15.624 15.624 0 0 1-4.765.825c-.374.02-.746.029-1.118.029h-.018Zm3.603-3.375H20V16.25l-4.5 3.375Z" clip-rule="evenodd" opacity=".5"/><defs><radialGradient id="a" cx="0" cy="0" r="1" gradientTransform="matrix(0 22 -22 0 12 1)" gradientUnits="userSpaceOnUse"><stop stop-color="#C6E6A8"/><stop offset="1" stop-color="#90D056"/></radialGradient></defs></svg>
